X: 10511
T: KATY'S RAMBLES
C:
%R: jig
B: Elias Howe "The Musician's Companion" Part 1 1842 p.51 #1
S: http://imslp.org/wiki/The_Musician's_Companion_(Howe,_Elias)
Z: 2015 John Chambers <jc:trillian.mit.edu>
M: 6/8
L: 1/8
K: Dm
% - - - - - - - - - - - - - - - - - - - - - - - - -
V: 1 staves=3
|:\
A2d cBA | fga gec | ded cAF | GFG AFD |\
A2d cBA | fga gec | ded cAG | Ad^c d2z :|
|:\
fad fad | fga agf | egc egc | efg gfe |\
fga gab | afd ecA | fed cAG | Ad^c d2z :|
% - - - - - - - - - - - - - - - - - - - - - - - - -
V: 2
|:\
F2B AGF | ABc BGA | BcB AFC | EDE F3 |\
F2B AGF | ABc BGA | BcB AFE | FFD F2z :|
|:\
A2F A2F | def fed | F2E F2E | ^cde edc |\
def efg | fdA cAA | dcB AFE | FFE F2z :|
% - - - - - - - - - - - - - - - - - - - - - - - - -
V: 3 clef=bass middle=d
|:\
f3 f3 | f3 f3 | f3 f2a | c'2c' f3 |\
f3 f3 | f3 f3 | f3 fac'| fdA d2z :|
|:\
d'3 d'3 | =b6 | c'3 c'3 | a6 |\
d6 | d2f a3 | d2e fac' | fdA d2z :|
% - - - - - - - - - - - - - - - - - - - - - - - - -
